X:9
T:T208A- Renardine
S:S. Holden, 'Collection of Old Irish Slow Airs', II, c 1805
Q:1/4=120
L:1/4
M:C|
K:G
d/e/4f/4|ge~ed/B/|A3/2G/EG/A/|BBAG|G3:|\
B/c/|dBde/f/|g2fd|e/f/e/d/Bd|\
e3B/c/|dBde/f/|g2fd|e/f/e/d/Bd|e3d/e/4f/4|\
geed/B/|~A3/2G/EG/A/|BBAG|G3|]

